logo/google-cloud-run.svg

<?xml version="1.0" encoding="UTF-8"?>
<svg width="256px" height="231px" viewBox="0 0 256 231" version="1.1" xmlns="http://www.w3.org/2000/svg" xmlns:xlink="http://www.w3.org/1999/xlink" preserveAspectRatio="xMidYMid">
		<g>
				<path d="M75.390147,0 C67.1964365,0.144249443 59.6926147,4.61940312 55.670735,11.7594655 L55.670735,11.7594655 L3.05275724,102.995813 C-1.01758575,110.07943 -1.01758575,118.791982 3.05275724,125.875029 L3.05275724,125.875029 L55.6507795,217.871964 C59.631608,225.111234 67.1149042,229.733488 75.3696214,230.052205 L75.3696214,230.052205 L180.586192,230.052205 C188.840909,229.768267 196.337889,225.164829 200.325559,217.932401 L200.325559,217.932401 L252.923581,126.455448 C254.973292,122.857194 255.997862,118.851278 255.997862,114.845933 L255.997862,114.845933 C255.997862,110.840588 254.973292,106.834673 252.923581,103.235849 L252.923581,103.235849 L200.325559,11.7594655 C196.300829,4.6222539 188.799287,0.148240535 180.606147,0 L180.606147,0 L75.390147,0 Z" fill="#4285F4"></path>
				<path d="M236.495178,155.027249 L200.325559,217.932401 C196.337889,225.164829 188.840909,229.768267 180.586192,230.052205 L140.510158,230.052205 L82.0381078,171.057147 L99.2756312,115.473789 L82.0381078,59.2541363 L99.743159,71.1470183 L123.548878,95.1659759 L112.429128,59.2541363 L195.804166,115.261691 L236.495178,155.027249 Z" fill-opacity="0.07" fill="#000000" fill-rule="nonzero"></path>
				<path d="M82.0382788,59.2539082 L99.7433301,71.1473604 L113.622065,115.765481 L99.9902076,159.043164 L82.0382788,171.05749 L99.3807109,115.261463 L82.0382788,59.2539082 Z M127.385457,79.0899171 L135.977707,106.881596 L168.966927,106.881596 L127.385457,79.0899171 Z M195.804166,115.261748 L112.429128,171.057204 L129.77156,115.261748 L112.429128,59.2536232 L195.804166,115.261748 Z" fill="#FFFFFF"></path>
		</g>
</svg>

<svg viewBox="0 0 256 231" xmlns="http://www.w3.org/2000/svg"><path fill="#4285F4" d="M75.39 0c-8.2.14-15.7 4.61-19.72 11.75v0L3.05 102.98c-4.08 7.08-4.08 15.79 0 22.87v0l52.59 91.99c3.98 7.23 11.46 11.86 19.71 12.18v0h105.21c8.25-.29 15.75-4.89 19.73-12.12v0l52.59-91.48c2.04-3.6 3.07-7.61 3.07-11.61v0c0-4.01-1.03-8.02-3.08-11.62v0l-52.6-91.48C196.24 4.57 188.74.09 180.55-.05v0H75.33Z"/><path fill-opacity=".07" d="M236.49 155.02l-36.17 62.9c-3.99 7.23-11.49 11.83-19.74 12.11H140.5l-58.48-59 17.23-55.59 -17.24-56.22 17.7 11.89 23.8 24.01 -11.12-35.92 83.37 56 40.69 39.76Z"/><path fill="#FFF" d="M82.03 59.25l17.7 11.89 13.87 44.61 -13.64 43.27L82 171.03l17.34-55.8 -17.35-56.01Zm45.34 19.83l8.59 27.79h32.98l-41.59-27.8Zm68.41 36.17l-83.38 55.79 17.34-55.8 -17.35-56.01 83.37 56Z"/></svg>
